X:1
T:Now I'm Easy
M:4/4
L:1/8
K:D
 D| A A3 A A3| B A3 E D2 D-| D B,- B,6| z6 z| D| A A3 A A3| B A3 A F2 F-|\
 F E- E6| z4 F| G3| A A3 AA-B A-| A2 z4 E2| D D3 D B,2 A,-| A,2 z2|\
 z2 DD| F3 G A3 B| A4 z EE F| E2 D6-| D4 z3||
